X: 32
T:Carolan's Dream
M:4/4
L:1/8
R:Air
N:Posted to tradtunes 07 March 2004
C:Carolan
Z:Steve Mansfield 07 March 2004
K:C
AB |: c2B>A A2GA | c2BA G2cd | e2de dcBA | A4 A2 de | f2fg e2ef |
d^cde a3g | aged dcAG | A6 :| ef | gede g3a | gede g3e |
agab ageg | a6 ag | f2fg e2ef | d^cde a2ab | aged dcAG | A6 ||
<end>
<start>
